X: 881
T: Gönül Penceresinden...
C: Muzaffer İlkar
O: Turkey
F: http://compmusic.upf.edu/node/140
N: hicaz--sarki--nimsofyan--gonul_penceresinden--muzaffer_ilkar
N: makam= hicaz
N: form= sarki
N: usul= nimsofyan = 2/4
M: 2/4
L: 1/16
K: C _7/8B ^f ^c 
Q: 1/4=72
%%MIDI tuningsystem comma53
AA2B c2d2  | e8  | ee2=f gafg  | e3d cBA2  | \
w:  ARANAĞME  |   |   |   | 
AA2B c2d2  | 
w:  ARANAĞME  | 
e8  | ee2=f gafg  | e8  | aa2b ag=fe  | d8  | \
w:   |   |   |   |   | 
gg2a g=fed  | 
w:   | 
c8  | ee2=f gfed  | cc2d edcB  | AB2c edcB  | 
w:   |   |   |   | 
ABcd efga  | aa2b ag=fe  | d8  | gg2a g=fed  | 
w:   |   |   |   | 
c8  | ee2=f gfed  | cc2d edcB  | AB2c edcB  | 
w:   |   |   |   | 
A8  | AA2B c2d2  | e2=f2 e4  | e3=f g3f  | \
w:   |  Gö nül  *  pen ce  |  re sin den   |  an sı zın  ba  | 
e2=f2 e4  | AA2B c2d2  | 
w:  kıp  geç tin    |  Gö nül  *  pen ce  | 
e2=f2 e4  | e3=f g3f  | e2=f2 e4  | a2b2 a2g2  | \
w:  re sin den   |  an sı zın  ba  |  kıp  geç tin    |  Bir  yan gı nın   | 
=fed6  | e=fg4f2  | 
w:  kü lü nü   |  ye ni den  ya  | 
e2d2 c4  | e2=f2 g2f2  | edc6  | cde4d2  | \
w:  kıp  geç tin    |  Bir  yan gı nın   |  kü lü nü   |  ye ni den  ya  | 
c2B2 A4  | AA2B c2d2  | 
w:  kıp  geç tin    |  ARANAĞME  | 
e8  | ee2=f gafg  | e3d cBA2  | AA2B c2d2  | e8  | \
w:   |   |   |  ARANAĞME  |   | 
ee2=f gafg  | 
w:   | 
e8  | aa2b ag=fe  | d8  | gg2a g=fed  | c8  | \
w:   |   |   |   |   | 
ee2=f gfed  | 
w:   | 
cc2d edcB  | AB2c edcB  | ABcd efga  | 
w:   |   |   | 
aa2b ag=fe  | d8  | gg2a g=fed  | c8  | ee2=f gfed  | 
w:   |   |   |   |   | 
cc2d edcB  | AB2c edcB  | A8  | a2b2 a2g2  | \
w:   |   |   |  Bir  yan gı nın   | 
=fed6  | 
w:  kü lü nü   | 
e=fg4f2  | e2d2 c4  | e2=f2 g2f2  | edc6  | \
w:  ye ni den  ya  |  kıp  geç tin    |  Bir  yan gı nın   |  kü lü nü   | 
cde4d2  | c2B2 A4  | 
w:  ye ni den  ya  |  kıp  geç tin    | 
AA2B c2d2  | e8  | ee2=f gafg  | e3d cBA2  | \
w:  ARANAĞME  |   |   |   | 
AA2B c2d2  | 
w:  ARANAĞME  | 
e8  | ee2=f gafg  | e8  | aa2b ag=fe  | d8  | \
w:   |   |   |   |   | 
gg2a g=fed  | 
w:   | 
c8  | ee2=f gfed  | cc2d edcB  | AB2c edcB  | 
w:   |   |   |   | 
ABcd efga  | aa2b ag=fe  | d8  | gg2a g=fed  | 
w:   |   |   |   | 
c8  | ee2=f gfed  | cc2d edcB  | AB2c edcB  | 
w:   |   |   |   | 
A8  | A2B2 c2d2  | c2B2 A4  | cd3 e2d2  | c2d2 c4  | \
w:   |  Ma dem  ki  son   |  şar kı nın   |  kı rık  bir  bes  |  te siy dim   | 
A2B2 c2d2  | c2B2 A4  | 
w:  Ma dem  ki  son   |  şar kı nın   | 
cd3 e2d2  | c2d2 c4  | g2a2 a2a2  | a2a2 a4  | \
w:  kı rık  bir  bes  |  te siy dim   |  Ni çin  ya rım   |  bı rak tın   | 
a2b2 a2g2  | =f2g2 e4  | 
w:  ne den  bı ra  |  kıp  git tin    | 
g2a2 a2a2  | a2a2 a4  | a2b2 a2g2  | =f2g2 e4  | \
w:  Ni çin  ya rım   |  bı rak tın   |  ne den  bı ra  |  kıp  git tin    | 
a2b2 a2g2  | =fed6  | 
w:  Bir  yan gı nın   |  kü lü nü   | 
e=fg4f2  | e2d2 c4  | e2=f2 g2f2  | edc6  | \
w:  ye ni den  ya  |  kıp  geç tin    |  Bir  yan gı nın   |  kü lü nü   | 
cde4d2  | c2B2 A4  | 
w:  ye ni den  ya  |  kıp  geç tin    | 
AA2B c2d2  | e8  | ee2=f gafg  | e3d cBA2  | \
w:  ARANAĞME  |   |   |   | 
AA2B c2d2  | 
w:  ARANAĞME  | 
e8  | ee2=f gafg  | e8  | aa2b ag=fe  | d8  | \
w:   |   |   |   |   | 
gg2a g=fed  | 
w:   | 
c8  | ee2=f gfed  | cc2d edcB  | AB2c edcB  | 
w:   |   |   |   | 
ABcd efga  | aa2b ag=fe  | d8  | gg2a g=fed  | 
w:   |   |   |   | 
c8  | ee2=f gfed  | cc2d edcB  | AB2c edcB  | 
w:   |   |   |   | 
A8  | |


